polaris-icons/icons/newicons/ColorsMajor.svg

<svg width="20" height="20" viewBox="0 0 20 20" fill="none" xmlns="http://www.w3.org/2000/svg">
<path d="M11 6C11 6.55228 10.5523 7 10 7C9.44772 7 9 6.55228 9 6C9 5.44772 9.44772 5 10 5C10.5523 5 11 5.44772 11 6Z" fill="black"/>
<path d="M6.5 9C7.05228 9 7.5 8.55228 7.5 8C7.5 7.44772 7.05228 7 6.5 7C5.94772 7 5.5 7.44772 5.5 8C5.5 8.55228 5.94772 9 6.5 9Z" fill="black"/>
<path d="M7.5 12C7.5 12.5523 7.05228 13 6.5 13C5.94772 13 5.5 12.5523 5.5 12C5.5 11.4477 5.94772 11 6.5 11C7.05228 11 7.5 11.4477 7.5 12Z" fill="black"/>
<path d="M13.5 9C14.0523 9 14.5 8.55228 14.5 8C14.5 7.44772 14.0523 7 13.5 7C12.9477 7 12.5 7.44772 12.5 8C12.5 8.55228 12.9477 9 13.5 9Z" fill="black"/>
<path fill-rule="evenodd" clip-rule="evenodd" d="M10 2C5.58172 2 2 5.58172 2 10C2 14.4183 5.58172 18 10 18C11.1046 18 12 17.1046 12 16V14C12 12.8954 12.8954 12 14 12H16C17.1046 12 18 11.1046 18 10C18 5.58172 14.4183 2 10 2ZM14 10.5H16C16.2761 10.5 16.5 10.2761 16.5 10C16.5 6.41015 13.5899 3.5 10 3.5C6.41015 3.5 3.5 6.41015 3.5 10C3.5 13.5899 6.41015 16.5 10 16.5C10.2761 16.5 10.5 16.2761 10.5 16V14C10.5 12.067 12.067 10.5 14 10.5Z" fill="black"/>
</svg>

<svg viewBox="0 0 20 20" fill="none" xmlns="http://www.w3.org/2000/svg"><path d="M11 6a1 1 0 1 1-2 0 1 1 0 0 1 2 0Z" fill="#000"/><path d="M6.5 9a1 1 0 1 0 0-2 1 1 0 0 0 0 2Z" fill="#000"/><path d="M7.5 12a1 1 0 1 1-2 0 1 1 0 0 1 2 0Z" fill="#000"/><path d="M13.5 9a1 1 0 1 0 0-2 1 1 0 0 0 0 2Z" fill="#000"/><path fill-rule="evenodd" clip-rule="evenodd" d="M10 2a8 8 0 1 0 0 16 2 2 0 0 0 2-2v-2a2 2 0 0 1 2-2h2a2 2 0 0 0 2-2 8 8 0 0 0-8-8Zm4 8.5h2a.5.5 0 0 0 .5-.5 6.5 6.5 0 1 0-6.5 6.5.5.5 0 0 0 .5-.5v-2a3.5 3.5 0 0 1 3.5-3.5Z" fill="#000"/></svg>
